icons/OpenLotus/actions/22/kstars_cbound.svg

<?xml version="1.0" encoding="UTF-8" standalone="no"?>
<!-- Created with Inkscape (http://www.inkscape.org/) -->

<svg
   xmlns:dc="http://purl.org/dc/elements/1.1/"
   xmlns:cc="http://creativecommons.org/ns#"
   xmlns:rdf="http://www.w3.org/1999/02/22-rdf-syntax-ns#"
   xmlns:svg="http://www.w3.org/2000/svg"
   xmlns="http://www.w3.org/2000/svg"
   xmlns:sodipodi="http://sodipodi.sourceforge.net/DTD/sodipodi-0.dtd"
   xmlns:inkscape="http://www.inkscape.org/namespaces/inkscape"
   width="22.000002"
   height="22"
   viewBox="0 0 22.000002 22"
   version="1.1"
   id="main"
   inkscape:version="0.92+devel (342812bdbc, 2017-09-26, custom)"
   sodipodi:docname="kstars_cbound.svg">
  <defs
     id="ol-defs">
    <style
       id="current-color-scheme"
       type="text/css">
      .ColorScheme-Text {
        color:#f2f2f2;
      }
      </style>
  </defs>
  <sodipodi:namedview
     id="base"
     pagecolor="#002466"
     bordercolor="#ffffff"
     borderopacity="0.30"
     inkscape:pageopacity="1"
     inkscape:pageshadow="0"
     inkscape:zoom="13.140625"
     inkscape:document-units="px"
     inkscape:current-layer="main"
     inkscape:document-rotation="0"
     showgrid="false"
     inkscape:showpageshadow="false"
     borderlayer="true"
     inkscape:window-width="1920"
     inkscape:window-height="1017"
     inkscape:window-x="0"
     inkscape:window-y="34"
     inkscape:window-maximized="1"
     units="px"
     inkscape:cx="6.5947884"
     inkscape:cy="8.0269054" />
  <metadata
     id="metadata5">
    <rdf:RDF>
      <cc:Work
         rdf:about="">
        <dc:format>image/svg+xml</dc:format>
        <dc:type
           rdf:resource="http://purl.org/dc/dcmitype/StillImage" />
        <dc:title></dc:title>
      </cc:Work>
    </rdf:RDF>
  </metadata>
  <g
     id="g835"
     inkscape:label="#kstars_cbound"
     style="stroke:none">
    <path
       style="fill:none;stroke:none;stroke-width:1"
       d="M 0,0 H 22.000001 V 22 H 0 Z"
       id="boundary"
       inkscape:label="#boundary"
       inkscape:connector-curvature="0" />
    <path
       inkscape:label="#"
       inkscape:connector-curvature="0"
       id="path828"
       d="m 8.0000009,3 a 5,5 0 0 1 -0.083984,0.884766 5.0000172,5.0000172 0 0 1 -0.1113281,0.484375 5.0000172,5.0000172 0 0 1 0,0.002 5.0000172,5.0000172 0 0 1 -0.1621094,0.474609 5.0000172,5.0000172 0 0 1 0,0.002 5,5 0 0 1 -2.5976562,2.707032 5.0000172,5.0000172 0 0 1 -0.4550782,0.179687 5.0000172,5.0000172 0 0 1 -0.00977,0.0039 5,5 0 0 1 -0.011719,0.0039 5.0000172,5.0000172 0 0 1 -0.4550781,0.126953 5.0000172,5.0000172 0 0 1 -0.015625,0.0039 A 5,5 0 0 1 3.0000009,8 V 9 A 6.0000172,6.0000172 0 0 0 4.4140634,8.824219 l 0.9511718,2.851562 C 4.5995142,11.887324 3.8039859,11.99821 3.0000009,12 v 0.662109 c 1.6837,1.36e-4 3.3324572,-0.414285 4.8007812,-1.1875 l 0.6699219,1.052735 0.5371094,0.841797 v 0.002 A 12,12 0 0 0 9.851563,12.835938 l -0.00391,-0.0059 C 11.92152,11.383425 13.540902,9.29087 14.374997,6.771444 l 2.154297,0.615235 0.740234,0.248047 C 17.744339,6.15953 17.997495,4.554181 18.000001,3 h -1 c -0.0037,1.11636 -0.154553,2.262254 -0.425781,3.359375 L 8.8808602,4.160156 A 6.0000172,6.0000172 0 0 0 9.0000009,3 Z m 0.609375,2.123047 4.8085941,1.375 c -0.764533,2.279362 -2.230619,4.175291 -4.105469,5.492187 L 8.6640634,10.970703 8.2402352,10.302734 a 9,9 0 0 1 -0.6992187,0.451172 c -0.394651,0.232116 -0.8076417,0.42458 -1.2304687,0.59375 L 5.3652352,8.511719 A 6.0000172,6.0000172 0 0 0 8.6093759,5.123047 Z m 3.5136721,5.666015 a 12,12 0 0 1 -0.681641,0.732422 l 1.451172,1.347657 C 10.278578,15.492106 6.7303029,16.996928 3.0000009,17 v 1 c 4.007224,-0.0065 7.8162421,-1.631624 10.6171871,-4.458984 l 2.208985,2.052734 A 18,18 0 0 1 11.189454,19 h 2.019531 a 19,19 0 0 0 3.345703,-2.728516 l 0.0098,0.0078 a 19,19 0 0 0 0.681641,-0.732422 l -0.0059,-0.0039 a 19,19 0 0 0 1.759766,-2.296875 v -2.039063 a 18,18 0 0 1 -2.507813,3.640625 l -2.179687,-2.02539 -0.726563,-0.673828 z"
       style="opacity:0.6;fill:#d0d0d0;fill-opacity:1;stroke:none" />
  </g>
</svg>

<svg xmlns="http://www.w3.org/2000/svg" viewBox="0 0 22 22">
  <defs id="defs3051">
    <style type="text/css" id="current-color-scheme">
      .ColorScheme-Text {
        color:#f2f2f2;
      }
      </style>
  </defs>
 <path 
     style="fill:currentColor;fill-opacity:1;stroke:none" 
     d="M 8 3 A 5 5 0 0 1 7.9160156 3.8847656 A 5.0000172 5.0000172 0 0 1 7.8046875 4.3691406 A 5.0000172 5.0000172 0 0 1 7.8046875 4.3710938 A 5.0000172 5.0000172 0 0 1 7.6425781 4.8457031 A 5.0000172 5.0000172 0 0 1 7.6425781 4.8476562 A 5 5 0 0 1 5.0449219 7.5546875 A 5.0000172 5.0000172 0 0 1 4.5898438 7.734375 A 5.0000172 5.0000172 0 0 1 4.5800781 7.7382812 A 5 5 0 0 1 4.5683594 7.7421875 A 5.0000172 5.0000172 0 0 1 4.1132812 7.8691406 A 5.0000172 5.0000172 0 0 1 4.0976562 7.8730469 A 5 5 0 0 1 3 8 L 3 9 A 6.0000172 6.0000172 0 0 0 4.4140625 8.8242188 L 5.3652344 11.675781 C 4.599513 11.887324 3.8039853 11.99821 3 12 L 3 12.662109 C 4.6837004 12.662245 6.3324573 12.247824 7.8007812 11.474609 L 8.4707031 12.527344 L 9.0078125 13.369141 L 9.0078125 13.371094 A 12 12 0 0 0 9.8515625 12.835938 L 9.8476562 12.830078 C 11.92152 11.383472 13.540905 9.29091 14.375 6.7714844 L 16.529297 7.3867188 L 17.269531 7.6347656 C 17.744348 6.1595298 17.997494 4.5541806 18 3 L 17 3 C 16.996288 4.11636 16.845447 5.2622536 16.574219 6.359375 L 8.8808594 4.1601562 A 6.0000172 6.0000172 0 0 0 9 3 L 8 3 z M 8.609375 5.1230469 L 13.417969 6.4980469 C 12.653436 8.7774086 11.18735 10.673338 9.3125 11.990234 L 8.6640625 10.970703 L 8.2402344 10.302734 A 9 9 0 0 1 7.5410156 10.753906 C 7.1463651 10.986022 6.7333735 11.178486 6.3105469 11.347656 L 5.3652344 8.5117188 A 6.0000172 6.0000172 0 0 0 8.609375 5.1230469 z M 12.123047 10.789062 A 12 12 0 0 1 11.441406 11.521484 L 12.892578 12.869141 C 10.278577 15.492106 6.7303016 16.996928 3 17 L 3 18 C 7.0072239 17.993541 10.816243 16.368376 13.617188 13.541016 L 15.826172 15.59375 A 18 18 0 0 1 11.189453 19 L 13.208984 19 A 19 19 0 0 0 16.554688 16.271484 L 16.564453 16.279297 A 19 19 0 0 0 17.246094 15.546875 L 17.240234 15.542969 A 19 19 0 0 0 19 13.246094 L 19 11.207031 A 18 18 0 0 1 16.492188 14.847656 L 14.3125 12.822266 L 13.585938 12.148438 L 12.123047 10.789062 z "
     class="ColorScheme-Text"
     />
</svg>
